static/fa/svgs/solid/face-smile-beam.svg

<svg xmlns="http://www.w3.org/2000/svg" viewBox="0 0 512 512"><!--! Font Awesome Free 6.1.1 by @fontawesome - https://fontawesome.com License - https://fontawesome.com/license/free (Icons: CC BY 4.0, Fonts: SIL OFL 1.1, Code: MIT License) Copyright 2022 Fonticons, Inc.--><path d="M0 256C0 114.6 114.6 0 256 0s256 114.6 256 256-114.6 256-256 256S0 397.4 0 256zm164.1 69.5c-5.8-6.7-15.9-7.4-22.6-1.6-6.7 5.8-7.4 15.9-1.6 22.6 22.2 25.6 61 53.5 115.2 53.5 56 0 94.7-27.9 117-53.5 5.8-6.7 5.1-16.8-1.6-22.6-6.7-5.8-16.8-5.1-22.6 1.6-18 20.7-48.5 42.5-92.8 42.5-42.5 0-73.1-21.8-91-42.5zm62.4-93.9c3.3-1.1 5.5-4.2 5.5-7.6 0-17.9-6.7-35.6-16.6-48.8-9.8-13-23.9-23.2-39.4-23.2s-29.6 10.2-39.4 23.2c-9.9 13.2-16.6 30.9-16.6 48.8 0 3.4 2.2 6.5 5.5 7.6 3.2 1.1 6.8 0 8.9-2.8l.2-.3c.2-.2-.5-.5.7-.9-.2-.8 1.6-1.9 2.8-3.3 2.5-2.9 6-6.6 10.2-11.2 8.8-6.9 18.9-13.1 27.7-13.1s18.9 6.2 27.7 13.1c4.2 4.6 7.7 8.3 10.2 11.2 1.2 1.4 2.1 2.5 2.8 3.3.3.4.5.7.7.9l.2.3c2.1 2.8 5.7 3.9 8.9 2.8zm151.1-2.8c2.1 2.8 5.7 3.9 8.9 2.8 3.3-1.1 5.5-4.2 5.5-7.6 0-17.9-6.7-35.6-16.6-48.8-9.8-13-23.9-23.2-39.4-23.2s-29.6 10.2-39.4 23.2c-9.9 13.2-16.6 30.9-16.6 48.8 0 3.4 2.2 6.5 5.5 7.6 3.2 1.1 6.8 0 8.9-2.8l.2-.3c.2-.2-.5-.5.7-.9-.2-.8 1.6-1.9 2.8-3.3 2.5-2.9 6-6.6 10.2-11.2 8.8-6.9 18.9-13.1 27.7-13.1s18.9 6.2 27.7 13.1c4.2 4.6 7.7 8.3 10.2 11.2 1.2 1.4 2.1 2.5 2.8 3.3.3.4.5.7.7.9l.2.3z"/></svg>

<svg xmlns="http://www.w3.org/2000/svg" viewBox="0 0 512 512"><!--! Font Awesome Free 6.1.1 by @fontawesome - https://fontawesome.com License - https://fontawesome.com/license/free (Icons: CC BY 4.0, Fonts: SIL OFL 1.1, Code: MIT License) Copyright 2022 Fonticons, Inc. --><path d="M0 256C0 114.6 114.6 0 256 0C397.4 0 512 114.6 512 256C512 397.4 397.4 512 256 512C114.6 512 0 397.4 0 256zM164.1 325.5C158.3 318.8 148.2 318.1 141.5 323.9C134.8 329.7 134.1 339.8 139.9 346.5C162.1 372.1 200.9 400 255.1 400C311.1 400 349.8 372.1 372.1 346.5C377.9 339.8 377.2 329.7 370.5 323.9C363.8 318.1 353.7 318.8 347.9 325.5C329.9 346.2 299.4 368 255.1 368C212.6 368 182 346.2 164.1 325.5H164.1zM226.5 231.6C229.8 230.5 232 227.4 232 224C232 206.1 225.3 188.4 215.4 175.2C205.6 162.2 191.5 152 176 152C160.5 152 146.4 162.2 136.6 175.2C126.7 188.4 120 206.1 120 224C120 227.4 122.2 230.5 125.5 231.6C128.7 232.7 132.3 231.6 134.4 228.8L134.4 228.8L134.6 228.5C134.8 228.3 134.1 228 135.3 227.6C135.1 226.8 136.9 225.7 138.1 224.3C140.6 221.4 144.1 217.7 148.3 213.1C157.1 206.2 167.2 200 176 200C184.8 200 194.9 206.2 203.7 213.1C207.9 217.7 211.4 221.4 213.9 224.3C215.1 225.7 216 226.8 216.7 227.6C217 228 217.2 228.3 217.4 228.5L217.6 228.8L217.6 228.8C219.7 231.6 223.3 232.7 226.5 231.6V231.6zM377.6 228.8C379.7 231.6 383.3 232.7 386.5 231.6C389.8 230.5 392 227.4 392 224C392 206.1 385.3 188.4 375.4 175.2C365.6 162.2 351.5 152 336 152C320.5 152 306.4 162.2 296.6 175.2C286.7 188.4 280 206.1 280 224C280 227.4 282.2 230.5 285.5 231.6C288.7 232.7 292.3 231.6 294.4 228.8L294.4 228.8L294.6 228.5C294.8 228.3 294.1 228 295.3 227.6C295.1 226.8 296.9 225.7 298.1 224.3C300.6 221.4 304.1 217.7 308.3 213.1C317.1 206.2 327.2 200 336 200C344.8 200 354.9 206.2 363.7 213.1C367.9 217.7 371.4 221.4 373.9 224.3C375.1 225.7 376 226.8 376.7 227.6C377 228 377.2 228.3 377.4 228.5L377.6 228.8L377.6 228.8z"/></svg>
